X:1
T:Dobbin's Flowery Vale
T:Drogheda Lasses, The
R:reel
M:4/4
L:1/8
K:G % transposed from Eb
B2GB EBGB|A2FA DAFA|B2GB EBGA|(3B^cd ef gfed|
B2GB EBGB|A2FA DAFA|BAGF EFGA|(3B^cd ed (3Bcd ef|]
g2gf gfed|BdAc Bdef|g2gf gfed|BdAc BEef|
g2gf gfed|B2AB GBFB|EDEF ~G2GA|AGdB gfed|]
